X:522
T: HOLDES GRUEN WIE LIEB ICH DICH
N: E1795
O: Europa, Mitteleuropa, Deutschland, Hessen, Wetzlar, Dutenhofen
R: Natur - Lied
M: 4/4
L: 1/16
K: D
A3F | D6D2D4G3F | E8z4
G3E | C6A2A4B3A | F8z4
D3F | A6A2A4F2D2 | B8z4
G2B2 | A2d2F2B2A2E2G2C2 | D8z4
D3F | A6A2A4F2D2 | B8z4
G2B2 | A2d2F2B2A2E2G2C2 | D8z4

@@@ Tune index: 5206
